src/pages/elements/images/sans-ligatures.svg

<svg xmlns="http://www.w3.org/2000/svg" xmlns:xlink="http://www.w3.org/1999/xlink" viewBox="0 0 288 288"><defs><path d="M82.55 137.801H69.11v-3.36h4.704v-26.784H69.11v-3.36h13.44v3.36h-4.704v26.784h4.704v3.36zm10.8 0h-3.84v-24.768h3.84v4.032h.192c1.2-2.784 3.312-4.608 7.008-4.608 5.088 0 8.304 3.456 8.304 9.456v15.888h-3.84v-15.216c0-4.416-1.92-6.672-5.616-6.672-3.072 0-6.048 1.536-6.048 4.704v17.184z" id="a"/><path d="M118.118 137.801v-21.408h-4.032v-3.36h4.032v-4.992c0-3.408 1.776-5.76 5.424-5.76h3.744v3.36h-5.328v7.392h13.872v24.768h-3.84v-21.408h-10.032v21.408h-3.84zm15.792-30.576c-1.632 0-2.352-.864-2.352-2.16v-.624c0-1.296.72-2.16 2.352-2.16s2.352.864 2.352 2.16v.624c0 1.296-.72 2.16-2.352 2.16z" id="b"/><path d="M147.83 137.801h-3.84v-24.768h3.84v4.032h.192c1.2-2.784 3.312-4.608 7.008-4.608 5.088 0 8.304 3.456 8.304 9.456v15.888h-3.84v-15.216c0-4.416-1.92-6.672-5.616-6.672-3.072 0-6.048 1.536-6.048 4.704v17.184zm25.344-30.576c-1.632 0-2.352-.864-2.352-2.16v-.624c0-1.296.72-2.16 2.352-2.16s2.352.864 2.352 2.16v.624c0 1.296-.72 2.16-2.352 2.16zm-1.92 30.576v-24.768h3.84v24.768h-3.84zm22.272 0h-4.8c-2.64 0-4.08-1.68-4.08-4.08v-17.328h-4.08v-3.36h2.304c1.632 0 2.16-.576 2.16-2.256v-4.608h3.456v6.864h5.424v3.36h-5.424v18.048h5.04v3.36zm15.696.576c-6.72 0-11.136-5.088-11.136-12.96 0-7.872 4.416-12.96 11.136-12.96 6.624 0 10.704 5.088 10.704 12.096v1.824h-17.808v1.152c0 4.272 2.736 7.488 7.344 7.488 3.12 0 5.52-1.536 6.816-4.272l2.736 1.968c-1.584 3.36-5.136 5.664-9.792 5.664zm0-22.704c-4.176 0-7.104 3.168-7.104 7.488v.336h13.68v-.528c0-4.368-2.64-7.296-6.576-7.296z" id="c"/><path d="M82.502 194.377c-8.448 0-13.488-5.952-13.488-17.136s5.04-17.52 13.488-17.52c5.568 0 9.408 2.688 11.52 7.344l-3.264 1.968c-1.344-3.456-4.128-5.712-8.256-5.712-5.76 0-9.168 4.56-9.168 11.424v4.992c0 6.864 3.408 11.04 9.168 11.04 4.272 0 7.2-2.4 8.544-6.048l3.216 2.016c-2.112 4.704-6.192 7.632-11.76 7.632z" id="d"/><path d="M111.398 194.377c-6.384 0-9.936-3.408-10.896-7.968l3.648-.864c.72 2.976 2.88 5.232 7.392 5.232 4.464 0 7.2-2.208 7.2-6.96v-19.92h-7.296v-3.6h11.328v22.704c0 7.056-4.272 11.376-11.376 11.376zm-11.136-14.496v-19.584h4.032v19.584h-4.032z" id="e"/><path d="M135.494 193.801h-4.032v-33.504h19.968v3.552h-15.936v11.232h14.544v3.552h-14.544v15.168zm43.248 0h-20.448v-33.504h20.448v3.552h-16.416v11.232h15.456v3.552h-15.456v11.616h16.416v3.552zm11.568-14.4v14.4h-4.032v-33.504h13.344c5.856 0 9.36 3.408 9.36 9.504 0 4.896-2.352 8.208-6.72 9.216l7.68 14.784h-4.56l-7.248-14.4h-7.824zm0-3.456h9.312c3.168 0 5.04-1.728 5.04-4.8v-2.496c0-3.072-1.872-4.8-5.04-4.8h-9.312v12.096z" id="f"/></defs><g fill="none" fill-rule="evenodd"><path fill="#171717" fill-rule="nonzero" d="M0 0h288v288H0z"/><use fill="#000" xlink:href="#a"/><use fill="#F3F3F3" xlink:href="#a"/><use fill="#000" xlink:href="#b"/><use fill="#418CFF" xlink:href="#b"/><use fill="#000" xlink:href="#c"/><use fill="#F3F3F3" xlink:href="#c"/><use fill="#000" xlink:href="#d"/><use fill="#F3F3F3" xlink:href="#d"/><use fill="#000" xlink:href="#e"/><use fill="#418CFF" xlink:href="#e"/><g><use fill="#000" xlink:href="#f"/><use fill="#F3F3F3" xlink:href="#f"/></g></g></svg>

<?xml version="1.0" encoding="UTF-8"?>
<svg width="288px" height="288px" viewBox="0 0 288 288" version="1.1" xmlns="http://www.w3.org/2000/svg" xmlns:xlink="http://www.w3.org/1999/xlink">
    <!-- Generator: Sketch 50.2 (55047) - http://www.bohemiancoding.com/sketch -->
    <title>sans-ligatures</title>
    <desc>Created with Sketch.</desc>
    <defs>
        <path d="M82.55,137.801 L69.11,137.801 L69.11,134.441 L73.814,134.441 L73.814,107.657 L69.11,107.657 L69.11,104.297 L82.55,104.297 L82.55,107.657 L77.846,107.657 L77.846,134.441 L82.55,134.441 L82.55,137.801 Z M93.35,137.801 L89.51,137.801 L89.51,113.033 L93.35,113.033 L93.35,117.065 L93.542,117.065 C94.742,114.281 96.854,112.457 100.55,112.457 C105.638,112.457 108.854,115.913 108.854,121.913 L108.854,137.801 L105.014,137.801 L105.014,122.585 C105.014,118.169 103.094,115.913 99.398,115.913 C96.326,115.913 93.35,117.449 93.35,120.617 L93.35,137.801 Z" id="path-1"></path>
        <path d="M118.118,137.801 L118.118,116.393 L114.086,116.393 L114.086,113.033 L118.118,113.033 L118.118,108.041 C118.118,104.633 119.894,102.281 123.542,102.281 L127.286,102.281 L127.286,105.641 L121.958,105.641 L121.958,113.033 L135.83,113.033 L135.83,137.801 L131.99,137.801 L131.99,116.393 L121.958,116.393 L121.958,137.801 L118.118,137.801 Z M133.91,107.225 C132.278,107.225 131.558,106.361 131.558,105.065 L131.558,104.441 C131.558,103.145 132.278,102.281 133.91,102.281 C135.542,102.281 136.262,103.145 136.262,104.441 L136.262,105.065 C136.262,106.361 135.542,107.225 133.91,107.225 Z" id="path-2"></path>
        <path d="M147.83,137.801 L143.99,137.801 L143.99,113.033 L147.83,113.033 L147.83,117.065 L148.022,117.065 C149.222,114.281 151.334,112.457 155.03,112.457 C160.118,112.457 163.334,115.913 163.334,121.913 L163.334,137.801 L159.494,137.801 L159.494,122.585 C159.494,118.169 157.574,115.913 153.878,115.913 C150.806,115.913 147.83,117.449 147.83,120.617 L147.83,137.801 Z M173.174,107.225 C171.542,107.225 170.822,106.361 170.822,105.065 L170.822,104.441 C170.822,103.145 171.542,102.281 173.174,102.281 C174.806,102.281 175.526,103.145 175.526,104.441 L175.526,105.065 C175.526,106.361 174.806,107.225 173.174,107.225 Z M171.254,137.801 L171.254,113.033 L175.094,113.033 L175.094,137.801 L171.254,137.801 Z M193.526,137.801 L188.726,137.801 C186.086,137.801 184.646,136.121 184.646,133.721 L184.646,116.393 L180.566,116.393 L180.566,113.033 L182.87,113.033 C184.502,113.033 185.03,112.457 185.03,110.777 L185.03,106.169 L188.486,106.169 L188.486,113.033 L193.91,113.033 L193.91,116.393 L188.486,116.393 L188.486,134.441 L193.526,134.441 L193.526,137.801 Z M209.222,138.377 C202.502,138.377 198.086,133.289 198.086,125.417 C198.086,117.545 202.502,112.457 209.222,112.457 C215.846,112.457 219.926,117.545 219.926,124.553 L219.926,126.377 L202.118,126.377 L202.118,127.529 C202.118,131.801 204.854,135.017 209.462,135.017 C212.582,135.017 214.982,133.481 216.278,130.745 L219.014,132.713 C217.43,136.073 213.878,138.377 209.222,138.377 Z M209.222,115.673 C205.046,115.673 202.118,118.841 202.118,123.161 L202.118,123.497 L215.798,123.497 L215.798,122.969 C215.798,118.601 213.158,115.673 209.222,115.673 Z" id="path-3"></path>
        <path d="M82.502,194.377 C74.054,194.377 69.014,188.425 69.014,177.241 C69.014,166.057 74.054,159.721 82.502,159.721 C88.07,159.721 91.91,162.409 94.022,167.065 L90.758,169.033 C89.414,165.577 86.63,163.321 82.502,163.321 C76.742,163.321 73.334,167.881 73.334,174.745 L73.334,179.737 C73.334,186.601 76.742,190.777 82.502,190.777 C86.774,190.777 89.702,188.377 91.046,184.729 L94.262,186.745 C92.15,191.449 88.07,194.377 82.502,194.377 Z" id="path-4"></path>
        <path d="M111.398,194.377 C105.014,194.377 101.462,190.969 100.502,186.409 L104.15,185.545 C104.87,188.521 107.03,190.777 111.542,190.777 C116.006,190.777 118.742,188.569 118.742,183.817 L118.742,163.897 L111.446,163.897 L111.446,160.297 L122.774,160.297 L122.774,183.001 C122.774,190.057 118.502,194.377 111.398,194.377 Z M100.262,179.881 L100.262,160.297 L104.294,160.297 L104.294,179.881 L100.262,179.881 Z" id="path-5"></path>
        <path d="M135.494,193.801 L131.462,193.801 L131.462,160.297 L151.43,160.297 L151.43,163.849 L135.494,163.849 L135.494,175.081 L150.038,175.081 L150.038,178.633 L135.494,178.633 L135.494,193.801 Z M178.742,193.801 L158.294,193.801 L158.294,160.297 L178.742,160.297 L178.742,163.849 L162.326,163.849 L162.326,175.081 L177.782,175.081 L177.782,178.633 L162.326,178.633 L162.326,190.249 L178.742,190.249 L178.742,193.801 Z M190.31,179.401 L190.31,193.801 L186.278,193.801 L186.278,160.297 L199.622,160.297 C205.478,160.297 208.982,163.705 208.982,169.801 C208.982,174.697 206.63,178.009 202.262,179.017 L209.942,193.801 L205.382,193.801 L198.134,179.401 L190.31,179.401 Z M190.31,175.945 L199.622,175.945 C202.79,175.945 204.662,174.217 204.662,171.145 L204.662,168.649 C204.662,165.577 202.79,163.849 199.622,163.849 L190.31,163.849 L190.31,175.945 Z" id="path-6"></path>
    </defs>
    <g id="Page-1" stroke="none" stroke-width="1" fill="none" fill-rule="evenodd">
        <g id="sans-ligatures">
            <polygon id="Shape" fill="#171717" fill-rule="nonzero" points="0 0 288 0 288 288 0 288"></polygon>
            <g id="In">
                <use fill="#000000" xlink:href="#path-1"></use>
                <use fill="#F3F3F3" xlink:href="#path-1"></use>
            </g>
            <g id="ﬁ">
                <use fill="#000000" xlink:href="#path-2"></use>
                <use fill="#418CFF" xlink:href="#path-2"></use>
            </g>
            <g id="nite">
                <use fill="#000000" xlink:href="#path-3"></use>
                <use fill="#F3F3F3" xlink:href="#path-3"></use>
            </g>
            <g id="C">
                <use fill="#000000" xlink:href="#path-4"></use>
                <use fill="#F3F3F3" xlink:href="#path-4"></use>
            </g>
            <g id="Ĳ">
                <use fill="#000000" xlink:href="#path-5"></use>
                <use fill="#418CFF" xlink:href="#path-5"></use>
            </g>
            <g id="FER">
                <use fill="#000000" xlink:href="#path-6"></use>
                <use fill="#F3F3F3" xlink:href="#path-6"></use>
            </g>
        </g>
    </g>
</svg>
